app/style/icons/tutorials/lifecycle/lifecycle-slide6-1.svg

<svg version="1.1" viewBox="0 0 1160 800" xmlns="http://www.w3.org/2000/svg">
 <path d="M1160 0H0V800H1160V0Z" fill="#fff"/>
 <path d="m751.6 45.21h-692c-7.732 0-14 6.268-14 14v681.17c0 7.732 6.268 14 14 14h692c7.732 0 14-6.268 14-14v-681.17c0-7.732-6.268-14-14-14z" fill="#ED6D47"/>
 <path d="m1105.4 755.41h-310.9c-2.533 0-4.962-1.006-6.753-2.797s-2.797-4.22-2.797-6.753v-321.8c0-1.799 0.354-3.581 1.043-5.243 0.688-1.662 1.698-3.172 2.97-4.444 1.272-1.273 2.782-2.282 4.444-2.97 1.662-0.689 3.444-1.043 5.243-1.043h306.75c2.53 0 4.96 1.006 6.75 2.797s2.8 4.22 2.8 6.753v326c0 2.533-1.01 4.962-2.8 6.753s-4.22 2.797-6.75 2.797v-0.05z" fill="#FFC84E"/>
 <path d="m950 600.66v-88.89c-17.58 0-34.766 5.213-49.384 14.98-14.618 9.768-26.011 23.65-32.739 39.893-6.728 16.242-8.488 34.115-5.059 51.358 3.43 17.243 11.896 33.082 24.328 45.513 12.431 12.432 28.27 20.898 45.513 24.328 17.243 3.429 35.116 1.669 51.358-5.059 16.243-6.728 30.123-18.121 39.893-32.739s14.98-31.804 14.98-49.384h-88.89z" fill="#091440"/>
 <path d="m958.89 476.53v-18.1h26.67v-17.77h-71.12v17.77h26.67v18.1c-32.154 2.303-62.16 16.992-83.699 40.976-21.54 23.983-32.934 55.389-31.782 87.604 1.153 32.216 14.76 62.727 37.958 85.11 23.198 22.384 54.177 34.892 86.413 34.892s63.21-12.508 86.41-34.892c23.2-22.383 36.81-52.894 37.96-85.11 1.15-32.215-10.24-63.621-31.78-87.604-21.54-23.984-51.546-38.673-83.7-40.976zm-8.89 230.79c-21.098 0-41.722-6.256-59.264-17.978-17.542-11.721-31.214-28.381-39.287-47.873-8.074-19.492-10.185-40.941-6.069-61.633 4.117-20.692 14.277-39.699 29.196-54.616 14.919-14.918 33.927-25.077 54.62-29.191 20.692-4.115 42.14-2.001 61.632 6.074s36.152 21.749 47.872 39.292 17.97 38.167 17.97 59.265c-0.03 28.279-11.28 55.39-31.28 75.386-20 19.995-47.111 31.242-75.39 31.274z" fill="#fff"/>
 <path d="m1105.4 390.26h-310.9c-2.533 0-4.962-1.007-6.753-2.798s-2.797-4.22-2.797-6.752v-321.8c0-3.6335 1.443-7.1182 4.013-9.6874 2.569-2.5692 6.053-4.0126 9.687-4.0126h306.75c2.53 0 4.96 1.0061 6.75 2.7971s2.8 4.2201 2.8 6.7529v326c0 2.532-1.01 4.961-2.8 6.752s-4.22 2.798-6.75 2.798v-0.05z" fill="#091440"/>
 <path d="m960.18 97.73v240h-19.29c-50.59 0-91.6-53.72-91.6-120s41-120 91.6-120h19.29z" fill="#FFC84E"/>
 <path d="m960.71 337.73c50.59 0 91.61-53.725 91.61-120 0-66.274-41.02-120-91.61-120-50.595 0-91.61 53.726-91.61 120 0 66.275 41.015 120 91.61 120z" fill="#FFC84E"/>
 <path d="m960.71 317.37c39.35 0 71.25-44.611 71.25-99.64 0-55.03-31.9-99.64-71.25-99.64s-71.25 44.61-71.25 99.64c0 55.029 31.9 99.64 71.25 99.64z" fill="#fff"/>
 <polygon transform="matrix(1.1309 0 0 1.3182 931.29 170.28)" points="61 3.44 35.56 33.62 33.57 36 35.56 38.38 61 68.56 63.34 66.6 37.56 36 63.34 5.4" fill="#c1272d"/>
 <polygon transform="matrix(1.1309 0 0 1.3182 931.29 170.28)" points="30.3 36 58.99 1.96 56.65 0 28.31 33.62 2.34 2.67 0 4.64 26.32 36 0 67.36 2.34 69.33 28.31 38.38 56.65 72 58.99 70.04" fill="#1a1a1a"/>
 <g fill="#C4CBD2">
  <path d="m986.09 45.21h-20v345.05h20v-345.05z"/>
  <path d="m936.09 45.21h-20v345.05h20v-345.05z"/>
  <path d="m886.09 45.21h-20v345.05h20v-345.05z"/>
  <path d="m836.09 45.21h-20v345.05h20v-345.05z"/>
  <path d="m1036.1 45.21h-20v345.05h20v-345.05z"/>
  <path d="m1086.1 45.21h-20v345.05h20v-345.05z"/>
 </g>
 <path d="m339 574.17c0-17.666 7.018-34.609 19.509-47.1 12.492-12.492 29.435-19.51 47.101-19.51s34.608 7.018 47.1 19.51c12.492 12.491 19.51 29.434 19.51 47.1v0.4h58.4v-349.57h-58.41c-0.215 17.523-7.327 34.256-19.794 46.572-12.468 12.316-29.286 19.222-46.811 19.222s-34.344-6.906-46.811-19.222c-12.468-12.316-19.579-29.049-19.794-46.572h-58.41v349.57h58.41v-0.4z" fill="#FEB8A5"/>
 <path d="m418.1 324.79h-25v100h25v-100z" fill="#091440"/>
 <path d="m418.1 449.79h-25v25h25v-25z" fill="#091440"/>
</svg>

<svg width="1160" height="800" viewBox="0 0 1160 800" fill="none" xmlns="http://www.w3.org/2000/svg">
<path d="M1160 0H0V800H1160V0Z" fill="white"/>
<path d="M751.6 45.21H59.5996C51.8676 45.21 45.5996 51.478 45.5996 59.21V740.38C45.5996 748.112 51.8676 754.38 59.5996 754.38H751.6C759.332 754.38 765.6 748.112 765.6 740.38V59.21C765.6 51.478 759.332 45.21 751.6 45.21Z" fill="#ED6D47"/>
<path d="M1105.45 755.41H794.55C792.017 755.41 789.588 754.404 787.797 752.613C786.006 750.822 785 748.393 785 745.86V424.06C785 422.261 785.354 420.479 786.043 418.817C786.731 417.155 787.741 415.645 789.013 414.373C790.285 413.1 791.795 412.091 793.457 411.403C795.119 410.714 796.901 410.36 798.7 410.36L1105.45 410.36C1107.98 410.36 1110.41 411.366 1112.2 413.157C1113.99 414.948 1115 417.377 1115 419.91V745.91C1115 748.443 1113.99 750.872 1112.2 752.663C1110.41 754.454 1107.98 755.46 1105.45 755.46V755.41Z" fill="#FFC84E"/>
<path d="M950 600.66V511.77C932.42 511.77 915.234 516.983 900.616 526.75C885.998 536.518 874.605 550.4 867.877 566.643C861.149 582.885 859.389 600.758 862.818 618.001C866.248 635.244 874.714 651.083 887.146 663.514C899.577 675.946 915.416 684.412 932.659 687.842C949.902 691.271 967.775 689.511 984.017 682.783C1000.26 676.055 1014.14 664.662 1023.91 650.044C1033.68 635.426 1038.89 618.24 1038.89 600.66H950Z" fill="#091440"/>
<path d="M958.89 476.53V458.43H985.56V440.66H914.44V458.43H941.11V476.53C908.956 478.833 878.95 493.522 857.411 517.506C835.871 541.489 824.477 572.895 825.629 605.11C826.782 637.326 840.389 667.837 863.587 690.22C886.785 712.604 917.764 725.112 950 725.112C982.236 725.112 1013.21 712.604 1036.41 690.22C1059.61 667.837 1073.22 637.326 1074.37 605.11C1075.52 572.895 1064.13 541.489 1042.59 517.506C1021.05 493.522 991.044 478.833 958.89 476.53V476.53ZM950 707.32C928.902 707.32 908.278 701.064 890.736 689.342C873.194 677.621 859.522 660.961 851.449 641.469C843.375 621.977 841.264 600.528 845.38 579.836C849.497 559.144 859.657 540.137 874.576 525.22C889.495 510.302 908.503 500.143 929.196 496.029C949.888 491.914 971.336 494.028 990.828 502.103C1010.32 510.178 1026.98 523.852 1038.7 541.395C1050.42 558.938 1056.67 579.562 1056.67 600.66C1056.64 628.939 1045.39 656.05 1025.39 676.046C1005.39 696.041 978.279 707.288 950 707.32V707.32Z" fill="white"/>
<path d="M1105.45 390.26L794.55 390.26C792.017 390.26 789.588 389.253 787.797 387.462C786.006 385.671 785 383.242 785 380.71V58.9096C785 55.2761 786.443 51.7914 789.013 49.2222C791.582 46.653 795.066 45.2096 798.7 45.2096L1105.45 45.2096C1107.98 45.2096 1110.41 46.2157 1112.2 48.0067C1113.99 49.7977 1115 52.2268 1115 54.7596V380.76C1115 383.292 1113.99 385.721 1112.2 387.512C1110.41 389.303 1107.98 390.31 1105.45 390.31V390.26Z" fill="#091440"/>
<path d="M960.18 97.7305V337.73H940.89C890.3 337.73 849.29 284.01 849.29 217.73C849.29 151.45 890.29 97.7305 940.89 97.7305H960.18Z" fill="#FFC84E"/>
<path d="M960.71 337.73C1011.3 337.73 1052.32 284.005 1052.32 217.73C1052.32 151.456 1011.3 97.7305 960.71 97.7305C910.115 97.7305 869.1 151.456 869.1 217.73C869.1 284.005 910.115 337.73 960.71 337.73Z" fill="#FFC84E"/>
<path d="M960.71 317.37C1000.06 317.37 1031.96 272.759 1031.96 217.73C1031.96 162.7 1000.06 118.09 960.71 118.09C921.36 118.09 889.46 162.7 889.46 217.73C889.46 272.759 921.36 317.37 960.71 317.37Z" fill="white"/>
<path d="M945.19 195.32L930.19 172.73H946.33L970.26 208.78H954.13C952.525 208.795 950.957 209.267 949.61 210.14C948.069 211.134 946.759 212.447 945.77 213.99C944.616 215.769 943.751 217.72 943.21 219.77C942.01 224.235 942.01 228.936 943.21 233.4C943.75 235.451 944.614 237.402 945.77 239.18C946.763 240.724 948.072 242.039 949.61 243.04C950.959 243.907 952.526 244.375 954.13 244.39H960.19L972 262.2H954.13C950.877 262.18 947.697 261.237 944.96 259.48C941.842 257.462 939.192 254.799 937.19 251.67C934.857 248.078 933.105 244.139 932 240C930.785 235.498 930.179 230.854 930.2 226.19C929.944 219.509 931.28 212.863 934.1 206.8C936.82 201.2 940.74 197.16 945.19 195.36V195.32Z" fill="#091440"/>
<path d="M986.55 240.12L1001.41 262.73H985.41L961.68 226.65H977.68C979.276 226.636 980.834 226.164 982.17 225.29C983.697 224.288 984.992 222.973 985.97 221.43C987.115 219.646 987.972 217.692 988.51 215.64C989.696 211.171 989.696 206.47 988.51 202C987.972 199.952 987.115 198.002 985.97 196.22C984.992 194.676 983.697 193.356 982.17 192.35C980.831 191.484 979.274 191.016 977.68 191H971.68L960 172.73H977.73C980.959 172.753 984.113 173.701 986.82 175.46C989.923 177.481 992.553 180.149 994.53 183.28C996.835 186.894 998.553 190.85 999.62 195C1000.83 199.507 1001.43 204.155 1001.41 208.82C1001.63 215.546 1000.3 222.233 997.52 228.36C994.83 234.03 990.96 238.17 986.52 240.12H986.55Z" fill="#091440"/>
<path d="M986.09 45.21H966.09V390.26H986.09V45.21Z" fill="#C4CBD2"/>
<path d="M936.09 45.21H916.09V390.26H936.09V45.21Z" fill="#C4CBD2"/>
<path d="M886.09 45.21H866.09V390.26H886.09V45.21Z" fill="#C4CBD2"/>
<path d="M836.09 45.21H816.09V390.26H836.09V45.21Z" fill="#C4CBD2"/>
<path d="M1036.09 45.21H1016.09V390.26H1036.09V45.21Z" fill="#C4CBD2"/>
<path d="M1086.09 45.21H1066.09V390.26H1086.09V45.21Z" fill="#C4CBD2"/>
<path d="M339 574.17C339 556.504 346.018 539.561 358.509 527.07C371.001 514.578 387.944 507.56 405.61 507.56C423.276 507.56 440.218 514.578 452.71 527.07C465.202 539.561 472.22 556.504 472.22 574.17V574.57H530.62V225H472.21C471.995 242.523 464.883 259.256 452.416 271.572C439.948 283.888 423.13 290.794 405.605 290.794C388.08 290.794 371.261 283.888 358.794 271.572C346.326 259.256 339.215 242.523 339 225H280.59V574.57H339V574.17Z" fill="#FEB8A5"/>
<path d="M418.1 324.79H393.1V424.79H418.1V324.79Z" fill="#091440"/>
<path d="M418.1 449.79H393.1V474.79H418.1V449.79Z" fill="#091440"/>
</svg>
